X: 7244
T: Clann Mhairtainn
R: reel
M: 4/4
K: Cmajor
|:GAcG Afed|c2cG AcGc|Acef edcG|A2cA ~A2cA|
cege dfed|c2cG AcGc|dfed feBc|cBc2 edc2:|
cege dfeg|a2ga ~a2ag|egag efed|c2Gc ~c2Ac|
egag edec|A2GA ~A2Gc|egfe dfec|cBc2 edc2|
cege dfeg|a2ga ~a2ag|egag efec|A2GA ~A2GA|
cege dfed|c2cG AcGc|dfed feBc|cBc2 edc2||

